!!!OTL: Die Rabenmutter Vater und Mutter, lebet wohl,
!!!ARE: Europa, Osteuropa, Ungarn
!!!YOR: 5, S. 271
!!    ????
!!!SCT: Q1114a
!!!YEM: Copyright 1995, estate of Helmut Schaffrath.
**kern
*ICvox
*Ivox
*M3/4
*k[f#]
*G:
{8d
8d
8d
=1
4g
4d
8B
8d
=2
4e
8d
8r}
{8g
8b
=3
4.a
8g
8f#
8c
=4
4e
8d}
{8d
8d
8g
=5
4b
4a
8cc
8b
=6
4.a}
{8g
8f#
8e
=7
4.d
8d
8e
8f#
=8
4.g}
==
!!!AGN: ???
!! Melodievergleich zu Q0114Y und Z, anderes Lied.
!!!ONB: ESAC (Essen Associative Code) Database: BALLADE
!!!AMT: simple triple
!!!AIN: vox
!!!EED: Helmut Schaffrath
!!!EEV: 1.0
*-
